!!!COM:	Berg
!!!OTL:	434_Ber-6/16-17/10-22
**kern	**dynam	**kern	**dynam	**kern	**dynam	**kern	**dynam
*part4	*part4	*part3	*part3	*part2	*part2	*part1	*part1
*staff4	*	*staff3	*	*staff2	*	*staff1	*
*I"Violoncello	*	*I"Viola	*	*I"Violin II	*	*I"Violin I	*
*I'Vc.	*	*I'Vla.	*	*I'Vln. II	*	*I'Vln. I	*
*clefF4	*	*clefG2	*	*clefG2	*	*clefG2	*
*k[]	*	*k[]	*	*k[]	*	*k[]	*
*C:	*	*C:	*	*C:	*	*C:	*
*M3/8	*	*M3/8	*	*M3/8	*	*M3/8	*
=1	=	=	=	=	=	=	=
(4a-X	<	(8ffL	>	(4an'	<	(4ee-X'	<
.	.	8een	.	.	.	.	.
[8A-X'	[	8ddJ)	]	[8A'	[[	[8e-X'	[[
=2	=2	=2	=2	=2	=2	=2	=2
8A-]	>	(4fn	<	8A']	[	8e-]	[
4G-X')	]	.	.	4B-X')	[	4en')	[
.	.	8gn	[	.	.	.	.
=3	=3	=3	=3	=3	=3	=3	=3
(4F'	.	8.b-XL)	>	(4An'	<	(16e-XLL	pp
.	.	.	.	.	.	16dnJJ	>
.	.	.	.	.	.	4d-X')	]]
.	.	(16enL	]	.	.	.	.
[8E'	[[	16f#X	.	8A-X	[	.	.
.	.	16anJJ	]]	.	.	.	.
=4	=4	=4	=4	=4	=4	=4	=4
!!linebreak:original
8E]	[	4.a-X)	]	8Gn)	.	(16cn^LL	]
.	.	.	.	.	.	16BnJJ	.
4Dn')	]]	.	.	16r	.	4B-X')	]
.	.	.	.	(16anKL	>	.	.
.	.	.	.	[8bnJ	.	.	.
*	*	*clefC3	*	*	*	*	*
=5	=5	=5	=5	=5	=5	=5	=5
(4C#X'	]	(4gn'	<	16bLL])	]	(4e-X'	<
.	.	.	.	(16ccnJ	pp	.	.
.	.	.	.	[8ddn	<	.	.
[8Cn'	.	[8f#X'	.	16ddL])	.	[8a-X'	.
.	.	.	.	(16eenJJ	.	.	.
=6	=6	=6	=6	=6	=6	=6	=6
8C]	.	8f#]	.	16ffnLL	.	8a-]	.
.	.	.	.	16aan	.	.	.
4BBn')	]]	4f#X')	[[	16eee#X'JJ)	[	4dd')	[[
.	.	.	.	16r	.	.	.
.	.	.	.	[8eee#^	p	.	.
=7	=7	=7	=7	=7	=7	=7	=7
(16BB-XLL	]	4c-X^	[	8eee#]	.	4ddn'	[
16Dn	.	.	.	.	.	.	.
16An'JJ)	.	.	.	[4eeen	.	.	.
16r	.	.	.	.	.	.	.
[8A	.	([8c-^	<	.	.	[8dd#X'	<
=8	=8	=8	=8	=8	=8	=8	=8
8AL]	.	8c-L]	.	4eee]	.	8dd#]	.
(16AA-XL	.	8B-X	[	.	.	4een'	.
16Cn	.	.	.	.	.	.	.
16Gn'JJ)	.	8A-XJ)	.	([8eee	<	.	.
16r	.	.	.	.	.	.	.
=9	=9	=9	=9	=9	=9	=9	=9
!	!	!	!	!	!	!LO:TX:a:B:t=Accel.	!
(16GG-XLL	<	(4Cn	<	8eeeL]	[	4ffn'	.
16BB-X	.	.	.	.	.	.	.
16Fn)	.	.	.	8dddn	>	.	.
(16EEn	.	.	.	.	.	.	.
16GG#X	.	8C#X	.	8cccnJ)	]]	8ff#X'	[
16DnJJ)	[	.	.	.	.	.	.
=10	=10	=10	=10	=10	=10	=10	=10
!!pagebreak:original
(16DDn'LL	>	8.EnL)	[	(4ee-X	]	(16ggnLL	.
16DD-XJJ	.	.	.	.	.	16bbn	.
4CC')	]	.	.	.	.	16fff#X'JJ)	.
.	.	(16E-XL	[	.	.	16r	.
.	.	16F-X	.	8ffn	<	[8fff#	.
.	.	16A-XJJ	[[	.	.	.	.
=11	=11	=11	=11	=11	=11	=11	=11
(16EEn'LL	>	8.GnL)	[	8bb-X'L)	[	8fff#']	.
16EE-XJJ	.	.	.	.	.	.	.
4DD')	]	.	.	16aanL	<	4fff^	p
.	.	(16F#XL	[	16ccc#X	.	.	.
.	.	16G#X	.	16ggg#X'JJ	.	.	.
.	.	16cnJJ	[	16r	[	.	.
=12	=12	=12	=12	=12	=12	=12	=12
!LO:TX:t=cresc.	!	!	!	!	!	!	!
(16GGn^LL	>	16Bn'LL)	>	8.ggg#X'L	p	(16bbnLL	<
16FF#XJ	.	(16B-X	.	.	.	16ddd#X	.
8FFn')	]	16cn	]	.	.	16aaa#X'JJ)	[
.	.	16en	.	(16cccnL	<	16r	.
(16BBn^L	>	16e-X'^)	]	16eeen	.	8aaa#	mf
16BB-XJJ	.	(16dnJJ	]	16bbbn'JJ	[[	.	.
=13	=13	=13	=13	=13	=13	=13	=13
!	!	!LO:TX:t=molto crec.	!	!	!	!	!
16AAn'LL)	]	24enLL	<	16r	[	(16ddd-XLL	<
.	.	24a-X	[	.	.	.	.
(16F#X^	>	.	.	8c#XL) 8ccn	<	16fffn	.
.	.	24gn'J)	[	.	.	.	.
!	!	!	!	!	!	!LO:TX:a:B:t=Rit.	!
16Fn	.	(24f#XL	<	.	.	16cccc#X')	.
.	.	24g#X	.	.	.	.	.
16E#XJ)	.	.	.	8e#X 8een	.	(16ddd#X	.
.	.	24b#XJ	.	.	.	.	.
24c#X^L	]	24bn'L)	[	.	.	16fff#X	.
24cn^	.	(24b-X	[	.	.	.	.
.	.	.	.	16b#XJk 16bbn	[	16cccc#'JJ)	[[
24Bn^JJ	]	24dd#XJJ)	[	.	.	.	.
==	==	==	==	==	==	==	==
*-	*-	*-	*-	*-	*-	*-	*-
!!!system-decoration: [(s1,s2,s3,s4)]
!!!ONB: Converted from MusicXML on 2020/01/17
